X:110
T:Miller's Daughter, The
M: C|
L:1/8
B:Thompson's Compleat Collection of 200 Favourite Country Dances, vol. 3 (London, 1773)
Z:Transcribed and edited by Flynn Titford-Mock, 2007
Z:abc's:AK/Fiddler's Companion
K:A
a | e/e/e e2 c>ded | ceAa f2 eg | e/e/e e2 c>dec | B/B/B ce f2e :|
|: f/g/ | a>ea>f ecAf/g/ | aefg f2 ef/g/ | aeaf ecaA | B/B/B ce f2e :|

